src/assets/showcase/images/home/unicredit.svg

<svg height="27" viewBox="0 0 116 27" width="116" xmlns="http://www.w3.org/2000/svg" xmlns:xlink="http://www.w3.org/1999/xlink"><mask id="a" fill="#fff"><path d="m.153 25.65h8.632v-25.444h-8.632z" fill="none"/></mask><mask id="b" fill="#fff"><path d="m.073 20.25h8.922v-19.896h-8.922z" fill="none"/></mask><mask id="c" fill="#fff"><path d="m16.625.174h-16.5v26.826h16.5z" fill="none"/></mask><mask id="d" fill="#fff"><path d="m0 25.65h16.51v-25.444h-16.51z" fill="none"/></mask><g fill="#fff" fill-rule="evenodd"><path d="m5.877.206c-2.146 0-3.896 1.91-3.896 4.256v2.283h-1.828v3.616h1.827v10.739c0 2.934 1.673 4.55 4.71 4.55 1.11 0 1.912-.354 2.094-.444v-3.725c-.292.11-.77.242-1.088.242-1.22 0-1.592-.372-1.592-1.593v-9.77h2.68v-3.615h-2.68v-6.539h-.228z" mask="url(#a)" transform="translate(106.978)"/><path d="m93.741 23.953h-1.761c-2.662 0-3.956-2.029-3.956-6.201 0-3.011.735-6.601 4.237-6.601a5.51 5.51 0 0 1 1.481.19v12.612zm4.003-22.603c-2.224 0-4.034 1.93-4.034 4.3v3.037a8.968 8.968 0 0 0 -2.326-.284c-4.621 0-7.606 3.761-7.606 9.581 0 5.775 2.867 8.976 8.075 9.016.203 0 5.204.002 6.103-.064v-25.586zm-26.609 14.768c.012-3.353 1.18-5.017 3.654-5.095 1.167-.036 3.694.122 3.833 4.025zm11.354.784c0-5.68-2.704-8.802-7.54-8.802-4.915 0-7.927 3.597-7.927 9.397 0 5.951 3.231 9.503 8.643 9.503 2.992 0 5.087-.725 6.218-1.34v-3.74c-1.122.817-2.685 1.827-5.78 1.827-2.793 0-4.327-1.504-4.7-4.574l11.086-1.548z"/><path d="m.073 1.871v18.379h.231c2.319 0 4.198-2.006 4.198-4.472v-11.699c.92-.5 2.943-.875 4.493.282v-3.877c-4.433-.437-6.748.284-8.922 1.386" mask="url(#b)" transform="translate(58 6.75)"/><path d="m.124 13.517c0 6.7 3.724 13.483 10.842 13.483 2.365 0 4.38-.544 5.66-1.556v-4.589c-1.038 1.494-2.77 2.09-4.67 2.09-4.332 0-7.243-4.895-7.243-9.465 0-4.556 2.77-9.472 7.242-9.472 2.266 0 3.686.97 4.67 2.344v-4.627c-1.625-1.064-3.549-1.551-5.621-1.551-7.144 0-10.88 6.712-10.88 13.343" mask="url(#c)" transform="translate(39.956)"/><path d="m34.822 7.104v19.896h.256c2.553 0 4.628-2.003 4.628-4.465v-15.43h-4.884zm-.022-3.714c0 1.108 1.156 2.01 2.578 2.01 1.446 0 2.578-.883 2.578-2.01 0-1.144-1.132-2.04-2.578-2.04-1.422 0-2.578.915-2.578 2.04"/><path d="m16.284.206c-2.253 0-4.087 1.847-4.087 4.117v14.103c0 2.3-1.947 3.542-3.779 3.542-1.873 0-3.811-1.325-3.811-3.542v-18.22h-.299c-2.376 0-4.308 1.947-4.308 4.34v13.913c0 4.1 3.549 7.191 8.255 7.191s8.254-3.091 8.254-7.191v-18.253z" mask="url(#d)"/><path d="m18.044 9.47v17.53h4.381v-15.48c.72-.277 1.365-.43 2.498-.43 2.411 0 2.917 1.495 2.917 2.749l-.003 8.943c0 2.324 1.878 4.218 4.167 4.218h.218v-13.226c0-2.12-.927-5.674-7.137-5.674-2.782 0-5.158.472-7.04 1.37m82.787-2.366v19.896h.24c2.382 0 4.32-2.003 4.32-4.465v-15.43h-4.56zm-.299-3.714c0 1.108 1.157 2.01 2.58 2.01 1.445 0 2.576-.883 2.576-2.01 0-1.144-1.131-2.04-2.577-2.04-1.422 0-2.579.915-2.579 2.04"/></g></svg>

<svg xmlns="http://www.w3.org/2000/svg" xmlns:xlink="http://www.w3.org/1999/xlink" width="116" height="27" viewBox="0 0 116 27">
    <defs>
        <path id="a" d="M.153 25.65h8.632V.206H.153z"/>
        <path id="c" d="M.073 20.25h8.922V.354H.073V20.25z"/>
        <path id="e" d="M16.625.174H.125V27h16.5z"/>
        <path id="g" d="M0 25.65H16.51V.206H0V25.65z"/>
    </defs>
    <g fill="none" fill-rule="evenodd">
        <g transform="translate(106.978)">
            <mask id="b" fill="#fff">
                <use xlink:href="#a"/>
            </mask>
            <path fill="#FFF" d="M5.877.206c-2.146 0-3.896 1.91-3.896 4.256v2.283H.153v3.616H1.98V21.1c0 2.934 1.673 4.55 4.71 4.55 1.11 0 1.912-.354 2.094-.444v-3.725c-.292.11-.77.242-1.088.242-1.22 0-1.592-.372-1.592-1.593v-9.77h2.68V6.745h-2.68V.206h-.228z" mask="url(#b)"/>
        </g>
        <path fill="#FFF" d="M93.741 23.953H91.98c-2.662 0-3.956-2.029-3.956-6.201 0-3.011.735-6.601 4.237-6.601a5.51 5.51 0 0 1 1.481.19v12.612zM97.744 1.35c-2.224 0-4.034 1.93-4.034 4.3v3.037a8.968 8.968 0 0 0-2.326-.284c-4.621 0-7.606 3.761-7.606 9.581 0 5.775 2.867 8.976 8.075 9.016.203 0 5.204.002 6.103-.064V1.35h-.212zM71.135 16.118c.012-3.353 1.18-5.017 3.654-5.095 1.167-.036 3.694.122 3.833 4.025l-7.487 1.07zm11.354.784c0-5.68-2.704-8.802-7.54-8.802-4.915 0-7.927 3.597-7.927 9.397 0 5.951 3.231 9.503 8.643 9.503 2.992 0 5.087-.725 6.218-1.34v-3.74c-1.122.817-2.685 1.827-5.78 1.827-2.793 0-4.327-1.504-4.7-4.574l11.086-1.548v-.723z"/>
        <g transform="translate(58 6.75)">
            <mask id="d" fill="#fff">
                <use xlink:href="#c"/>
            </mask>
            <path fill="#FFF" d="M.073 1.871V20.25h.231c2.319 0 4.198-2.006 4.198-4.472V4.079c.92-.5 2.943-.875 4.493.282V.484C4.562.047 2.247.768.073 1.87" mask="url(#d)"/>
        </g>
        <g transform="translate(39.956)">
            <mask id="f" fill="#fff">
                <use xlink:href="#e"/>
            </mask>
            <path fill="#FFF" d="M.124 13.517C.124 20.217 3.848 27 10.966 27c2.365 0 4.38-.544 5.66-1.556v-4.589c-1.038 1.494-2.77 2.09-4.67 2.09-4.332 0-7.243-4.895-7.243-9.465 0-4.556 2.77-9.472 7.242-9.472 2.266 0 3.686.97 4.67 2.344V1.725C15 .661 13.076.174 11.004.174 3.86.174.124 6.886.124 13.517" mask="url(#f)"/>
        </g>
        <path fill="#FFF" d="M34.822 7.104V27h.256c2.553 0 4.628-2.003 4.628-4.465V7.105h-4.884zM34.8 3.39c0 1.108 1.156 2.01 2.578 2.01 1.446 0 2.578-.883 2.578-2.01 0-1.144-1.132-2.04-2.578-2.04-1.422 0-2.578.915-2.578 2.04"/>
        <g>
            <mask id="h" fill="#fff">
                <use xlink:href="#g"/>
            </mask>
            <path fill="#FFF" d="M16.284.206c-2.253 0-4.087 1.847-4.087 4.117v14.103c0 2.3-1.947 3.542-3.779 3.542-1.873 0-3.811-1.325-3.811-3.542V.206h-.299C1.932.206 0 2.153 0 4.546v13.913c0 4.1 3.549 7.191 8.255 7.191 4.706 0 8.254-3.091 8.254-7.191V.206h-.225z" mask="url(#h)"/>
        </g>
        <path fill="#FFF" d="M18.044 9.47V27h4.381V11.52c.72-.277 1.365-.43 2.498-.43 2.411 0 2.917 1.495 2.917 2.749l-.003 8.943c0 2.324 1.878 4.218 4.167 4.218h.218V13.774c0-2.12-.927-5.674-7.137-5.674-2.782 0-5.158.472-7.04 1.37M100.832 7.104V27h.24c2.382 0 4.32-2.003 4.32-4.465V7.105h-4.56zM100.533 3.39c0 1.108 1.157 2.01 2.58 2.01 1.445 0 2.576-.883 2.576-2.01 0-1.144-1.131-2.04-2.577-2.04-1.422 0-2.579.915-2.579 2.04"/>
    </g>
</svg>
